X: 28327
T: Muffler, The
R: mazurka
M: 3/4
K: Dmajor
ag|:fa d2dc|Bd G2 GB|Ad gf ed|ea ^ga ba|
fa d2dc|Bd G2 GB|Ad (3gfe dc|1 ce{fe}d2ag:|2 ce{fe}d2A(B||
|:cd c)A -A(c|de d)A -A(d|ef e)A fg|fa gf ed|
(cd c)A -A(c|de d)A -Ad|fa gf ec-|1 ce{fe}d2AB:|2 -ce {fe}d2ag||

